img/icon/tg.svg

<svg width="18" height="16" viewBox="0 0 18 16" fill="none" xmlns="http://www.w3.org/2000/svg">
<path fill-rule="evenodd" clip-rule="evenodd" d="M9.5899 12.5936L6.9969 15.0166C6.9969 15.0166 6.7939 15.1736 6.5719 15.0756L7.0689 10.5756L7.0859 10.5886L7.0959 10.4966C7.0959 10.4966 14.3679 3.79957 14.6659 3.51457C14.9639 3.22957 14.8639 3.16857 14.8639 3.16857C14.8839 2.82257 14.3279 3.16857 14.3279 3.16857L4.6919 9.43857L0.678903 8.05457C0.678903 8.05457 0.0629031 7.83057 0.00290313 7.34157C-0.0570969 6.85357 0.698903 6.58857 0.698903 6.58857L16.6519 0.176569C16.6519 0.176569 17.9639 -0.41343 17.9639 0.56357L15.1229 15.2396C15.1229 15.2396 14.7249 16.2576 13.6329 15.7696L9.5899 12.5936Z" fill="#848E9F"/>
</svg>

<svg width="18" height="16" fill="none" xmlns="http://www.w3.org/2000/svg"><path fill-rule="evenodd" clip-rule="evenodd" d="M9.59 12.594l-2.593 2.423s-.203.157-.425.059l.497-4.5.017.013.01-.092s7.272-6.697 7.57-6.982c.298-.285.198-.346.198-.346.02-.346-.536 0-.536 0l-9.636 6.27L.679 8.055S.063 7.83.003 7.342c-.06-.488.696-.753.696-.753L16.652.177s1.312-.59 1.312.387L15.123 15.24s-.398 1.018-1.49.53L9.59 12.594z" fill="#848E9F"/></svg>
